tfc_web/static/images/camera.svg

<svg height="194.823" viewBox="0 0 236.196 194.823" width="236.196" xmlns="http://www.w3.org/2000/svg"><path d="m232.436 182.036c0 4.985-4.041 9.026-9.026 9.026h-210.622c-4.985 0-9.027-4.041-9.027-9.026v-169.249c0-4.986 4.042-9.026 9.027-9.026h210.621c4.985 0 9.026 4.04 9.026 9.026v169.249z" fill="none" stroke="#000" stroke-width="7.5222"/><path d="m120.43 24.971h-77.573c-11.955 0-21.647 9.611-21.647 21.465v101.953c0 11.854 9.692 21.463 21.647 21.463h77.573c11.956 0 21.648-9.609 21.648-21.463v-101.953c0-11.854-9.692-21.465-21.648-21.465zm-50.895 129.842c-16.799 0-30.417-13.616-30.417-30.412 0-16.802 13.618-30.417 30.417-30.417 16.797 0 30.415 13.615 30.415 30.417-.001 16.795-13.618 30.412-30.415 30.412zm38.11-86.118c-9.31 0-16.857-7.547-16.857-16.856 0-9.311 7.547-16.856 16.857-16.856s16.857 7.546 16.857 16.856c-.001 9.309-7.547 16.856-16.857 16.856z"/><circle cx="107.645" cy="51.839001" r="9.528"/><circle cx="69.492" cy="124.31" r="20.978"/><path d="m148.371 50.320999h8.947v82.337997h-8.947z"/><path d="m164.03999 54.541h8.947v78.117996h-8.947z"/><path d="m214.988 79.89h-26.434v-13.549h-8.95v72.656h-31.246v9.061h31.246 8.695.255v-21.99h26.434z"/></svg>

<?xml version="1.0" encoding="UTF-8" standalone="no"?>
<svg
   xmlns:svg="http://www.w3.org/2000/svg"
   xmlns="http://www.w3.org/2000/svg"
   version="1.0"
   width="236.196"
   height="194.823"
   viewBox="0 0 236.196 194.823"
   xml:space="preserve"
>
    <g>
	<path fill="none" stroke="#000000" stroke-width="7.5222" d="M 232.436,182.036 C 232.436,187.021 228.395,191.062 223.41,191.062 L 12.788,191.062 C 7.803,191.062 3.761,187.021 3.761,182.036 L 3.761,12.787 C 3.761,7.801 7.803,3.761 12.788,3.761 L 223.409,3.761 C 228.394,3.761 232.435,7.801 232.435,12.787 L 232.435,182.036 L 232.436,182.036 z "/>
	<path d="M 120.43,24.971 L 42.857,24.971 C 30.902,24.971 21.21,34.582 21.21,46.436 L 21.21,148.389 C 21.21,160.243 30.902,169.852 42.857,169.852 L 120.43,169.852 C 132.386,169.852 142.078,160.243 142.078,148.389 L 142.078,46.436 C 142.078,34.582 132.386,24.971 120.43,24.971 z M 69.535,154.813 C 52.736,154.813 39.118,141.197 39.118,124.401 C 39.118,107.599 52.736,93.984 69.535,93.984 C 86.332,93.984 99.95,107.599 99.95,124.401 C 99.949,141.196 86.332,154.813 69.535,154.813 z M 107.645,68.695 C 98.335,68.695 90.788,61.148 90.788,51.839 C 90.788,42.528 98.335,34.983 107.645,34.983 C 116.955,34.983 124.502,42.529 124.502,51.839 C 124.501,61.148 116.955,68.695 107.645,68.695 z "/>
	<circle cx="107.645" cy="51.839001" r="9.5279999"/>
	<circle cx="69.492" cy="124.31" r="20.978"/>
	<rect width="8.9469995" height="82.337997" x="148.371" y="50.320999"/>
	<rect width="8.9469995" height="78.117996" x="164.03999" y="54.541"/>
	<polygon points="214.988,79.89 188.554,79.89 188.554,66.341 179.604,66.341 179.604,138.997 148.358,138.997 148.358,148.058 179.604,148.058 188.299,148.058 188.554,148.058 188.554,126.068 214.988,126.068 214.988,79.89 "/>
    </g>
</svg>
